X: 24797
T: Maggie In The Woods
R: polka
M: 2/4
K: Gmajor
|:D|GD GA|Be ef/e/|dB B/A/G/A/|BA A>D|
GD GA|Be ef/e/|dB AB/A/|1 G2 G:|2 G2 G z||
|:gf ed|ef g>e|dB B/A/G/A/|BA A z|
gf ed|ef g>e|dB AB/A/|1 G2 G2:|2 G2 G||

